Develop Presets/User Presets/PresetPond/FantasticPink.lrtemplate
s = {
	id = "89C54727-4841-4564-88A0-E0E74909152E",
	internalName = "Daniela_FantasticPink",
	title = "Daniela_FantasticPink",
	type = "Develop",
	value = {
		settings = {
			AutoBrightness = false,
			AutoContrast = false,
			AutoExposure = false,
			AutoShadows = false,
			BlueHue = 0,
			BlueSaturation = 0,
			Brightness = 47,
			CameraProfile = "Embedded",
			ChromaticAberrationB = 0,
			ChromaticAberrationR = 0,
			Clarity = -5,
			ColorNoiseReduction = 26,
			ColorNoiseReductionDetail = 50,
			Contrast = 50,
			ConvertToGrayscale = false,
			CropConstrainToWarp = 0,
			Defringe = 0,
			EnableCalibration = true,
			EnableColorAdjustments = true,
			EnableDetail = true,
			EnableEffects = true,
			EnableGradientBasedCorrections = true,
			EnableLensCorrections = true,
			EnableSplitToning = true,
			Exposure = 1.92,
			FillLight = 5,
			GradientBasedCorrections = {
				{
					CorrectionActive = true,
					CorrectionAmount = 1,
					CorrectionID = "A87AB83C-7C7B-40F7-B739-004921F57834",
					CorrectionMasks = {
						{
							FullX = 0.480181,
							FullY = 0.005801,
							MaskID = "9DF54030-920F-41F8-8312-D59EC9A70A8D",
							MaskValue = 1,
							What = "Mask/Gradient",
							ZeroX = 0.474285,
							ZeroY = 0.994286,
						},
					},
					CorrectionReferenceX = 0.500043,
					CorrectionReferenceY = 0.522767,
					LocalBrightness = -0.741176,
					LocalClarity = -0.223529,
					LocalContrast = -0.105882,
					LocalExposure = 0.529412,
					LocalSaturation = -0.647059,
					LocalSharpness = -0.505882,
					LocalToningHue = 337,
					LocalToningSaturation = 0.26,
					What = "Correction",
				},
			},
			GrainAmount = 0,
			GrainFrequency = 50,
			GrainSize = 25,
			GreenHue = 0,
			GreenSaturation = 0,
			HighlightRecovery = 25,
			HueAdjustmentAqua = 0,
			HueAdjustmentBlue = 0,
			HueAdjustmentGreen = 0,
			HueAdjustmentMagenta = 0,
			HueAdjustmentOrange = 0,
			HueAdjustmentPurple = 0,
			HueAdjustmentRed = -23,
			HueAdjustmentYellow = 0,
			IncrementalTemperature = 5,
			IncrementalTint = 9,
			LensManualDistortionAmount = 0,
			LensProfileEnable = 0,
			LensProfileSetup = "LensDefaults",
			LuminanceAdjustmentAqua = 0,
			LuminanceAdjustmentBlue = 0,
			LuminanceAdjustmentGreen = 0,
			LuminanceAdjustmentMagenta = 0,
			LuminanceAdjustmentOrange = 0,
			LuminanceAdjustmentPurple = 0,
			LuminanceAdjustmentRed = 0,
			LuminanceAdjustmentYellow = 0,
			LuminanceNoiseReductionContrast = 0,
			LuminanceNoiseReductionDetail = 23,
			LuminanceSmoothing = 60,
			ParametricDarks = -9,
			ParametricHighlightSplit = 75,
			ParametricHighlights = -40,
			ParametricLights = -15,
			ParametricMidtoneSplit = 50,
			ParametricShadowSplit = 25,
			ParametricShadows = -7,
			PerspectiveHorizontal = 0,
			PerspectiveRotate = 0,
			PerspectiveScale = 100,
			PerspectiveVertical = 0,
			PostCropVignetteAmount = 0,
			PostCropVignetteFeather = 50,
			PostCropVignetteHighlightContrast = 0,
			PostCropVignetteMidpoint = 50,
			PostCropVignetteRoundness = 0,
			PostCropVignetteStyle = 1,
			ProcessVersion = "5.7",
			RedHue = 0,
			RedSaturation = 0,
			Saturation = -39,
			SaturationAdjustmentAqua = 0,
			SaturationAdjustmentBlue = 0,
			SaturationAdjustmentGreen = 0,
			SaturationAdjustmentMagenta = 0,
			SaturationAdjustmentOrange = 0,
			SaturationAdjustmentPurple = 0,
			SaturationAdjustmentRed = 0,
			SaturationAdjustmentYellow = 0,
			ShadowTint = 40,
			Shadows = 2,
			SharpenDetail = 25,
			SharpenEdgeMasking = 0,
			SharpenRadius = 1,
			Sharpness = 7,
			SplitToningBalance = 50,
			SplitToningHighlightHue = 53,
			SplitToningHighlightSaturation = 21,
			SplitToningShadowHue = 248,
			SplitToningShadowSaturation = 40,
			ToneCurve = {
				0,
				0,
				32,
				22,
				64,
				56,
				128,
				128,
				192,
				196,
				255,
				255,
			},
			ToneCurveName = "Medium Contrast",
			Vibrance = 25,
			VignetteAmount = -41,
			VignetteMidpoint = 0,
			WhiteBalance = "Custom",
			orientation = "AB",
		},
		uuid = "C881DCE7-27DA-4D62-AA0D-42FD5C7C9FD7",
	},
	version = 0,
}
