Develop Presets/User Presets/PresetPond/Graveyard Shift.lrtemplate
s = {
	id = "BDE45012-5EB4-43B6-BA6A-D39B0264B6B5",
	internalName = "Graveyard Shift",
	title = "Graveyard Shift",
	type = "Develop",
	value = {
		settings = {
			AutoBrightness = false,
			AutoContrast = false,
			AutoExposure = false,
			AutoShadows = false,
			Brightness = 86,
			Clarity = 90,
			ColorNoiseReduction = 21,
			ColorNoiseReductionDetail = 43,
			Contrast = 16,
			ConvertToGrayscale = false,
			EnableColorAdjustments = true,
			EnableDetail = true,
			EnableLensCorrections = true,
			EnableSplitToning = true,
			Exposure = 0,
			FillLight = 62,
			HighlightRecovery = 100,
			HueAdjustmentAqua = 0,
			HueAdjustmentBlue = 0,
			HueAdjustmentGreen = 0,
			HueAdjustmentMagenta = 0,
			HueAdjustmentOrange = 0,
			HueAdjustmentPurple = 0,
			HueAdjustmentRed = 0,
			HueAdjustmentYellow = 0,
			LuminanceAdjustmentAqua = 0,
			LuminanceAdjustmentBlue = 0,
			LuminanceAdjustmentGreen = 0,
			LuminanceAdjustmentMagenta = 0,
			LuminanceAdjustmentOrange = 0,
			LuminanceAdjustmentPurple = 0,
			LuminanceAdjustmentRed = 0,
			LuminanceAdjustmentYellow = 0,
			LuminanceNoiseReductionContrast = 40,
			LuminanceNoiseReductionDetail = 16,
			LuminanceSmoothing = 38,
			Saturation = -100,
			SaturationAdjustmentAqua = 0,
			SaturationAdjustmentBlue = 0,
			SaturationAdjustmentGreen = 0,
			SaturationAdjustmentMagenta = 0,
			SaturationAdjustmentOrange = 0,
			SaturationAdjustmentPurple = 0,
			SaturationAdjustmentRed = 0,
			SaturationAdjustmentYellow = 0,
			Shadows = 74,
			SplitToningBalance = 0,
			SplitToningHighlightHue = 219,
			SplitToningHighlightSaturation = 50,
			SplitToningShadowHue = 279,
			SplitToningShadowSaturation = 31,
			Vibrance = -100,
			VignetteAmount = -63,
			VignetteMidpoint = 0,
		},
		uuid = "004A9F00-DC72-42F6-8D8B-B45F4A53DF3C",
	},
	version = 0,
}
