Develop Presets/User Presets/PresetPond/old_film_of_latin_america.lrtemplate
s = {
	id = "FE38F7CE-58DA-41CE-8CE2-3313667E9AA2",
	internalName = "old_film_of_latin_america",
	title = "old_film_of_latin_america",
	type = "Develop",
	value = {
		settings = {
			AutoBrightness = false,
			AutoContrast = false,
			AutoExposure = false,
			AutoShadows = false,
			BlueHue = -44,
			BlueSaturation = 33,
			Brightness = 0,
			CameraProfile = "Embedded",
			ChromaticAberrationB = 0,
			ChromaticAberrationR = 0,
			Clarity = 0,
			ColorNoiseReduction = 0,
			ColorNoiseReductionDetail = 50,
			Contrast = 49,
			ConvertToGrayscale = false,
			CropConstrainToWarp = 0,
			Defringe = 0,
			EnableCalibration = true,
			EnableColorAdjustments = true,
			EnableDetail = true,
			EnableEffects = true,
			EnableLensCorrections = true,
			EnableSplitToning = true,
			Exposure = 0,
			FillLight = 36,
			GrainAmount = 47,
			GrainFrequency = 71,
			GrainSize = 20,
			GreenHue = 46,
			GreenSaturation = 0,
			HighlightRecovery = 0,
			HueAdjustmentAqua = 0,
			HueAdjustmentBlue = 0,
			HueAdjustmentGreen = 0,
			HueAdjustmentMagenta = 0,
			HueAdjustmentOrange = 0,
			HueAdjustmentPurple = 0,
			HueAdjustmentRed = 0,
			HueAdjustmentYellow = 0,
			LensManualDistortionAmount = 0,
			LuminanceAdjustmentAqua = 0,
			LuminanceAdjustmentBlue = 0,
			LuminanceAdjustmentGreen = 0,
			LuminanceAdjustmentMagenta = 0,
			LuminanceAdjustmentOrange = 0,
			LuminanceAdjustmentPurple = 0,
			LuminanceAdjustmentRed = 0,
			LuminanceAdjustmentYellow = 0,
			LuminanceNoiseReductionContrast = 0,
			LuminanceNoiseReductionDetail = 50,
			LuminanceSmoothing = 0,
			ParametricDarks = 52,
			ParametricHighlightSplit = 90,
			ParametricHighlights = 0,
			ParametricLights = 0,
			ParametricMidtoneSplit = 59,
			ParametricShadowSplit = 10,
			ParametricShadows = 0,
			PerspectiveHorizontal = 0,
			PerspectiveRotate = 0,
			PerspectiveScale = 100,
			PerspectiveVertical = 0,
			PostCropVignetteAmount = 14,
			PostCropVignetteFeather = 93,
			PostCropVignetteHighlightContrast = 0,
			PostCropVignetteMidpoint = 43,
			PostCropVignetteRoundness = 100,
			PostCropVignetteStyle = 1,
			ProcessVersion = "5.7",
			RedHue = 49,
			RedSaturation = 0,
			Saturation = -16,
			SaturationAdjustmentAqua = -14,
			SaturationAdjustmentBlue = -14,
			SaturationAdjustmentGreen = -14,
			SaturationAdjustmentMagenta = -14,
			SaturationAdjustmentOrange = -12,
			SaturationAdjustmentPurple = -14,
			SaturationAdjustmentRed = -12,
			SaturationAdjustmentYellow = -13,
			ShadowTint = 0,
			Shadows = 10,
			SharpenDetail = 25,
			SharpenEdgeMasking = 0,
			SharpenRadius = 1,
			Sharpness = 0,
			SplitToningBalance = 0,
			SplitToningHighlightHue = 78,
			SplitToningHighlightSaturation = 28,
			SplitToningShadowHue = 236,
			SplitToningShadowSaturation = 31,
			ToneCurve = {
				0,
				0,
				255,
				255,
			},
			ToneCurveName = "Linear",
			Vibrance = 21,
			VignetteAmount = -69,
			VignetteMidpoint = 17,
			WhiteBalance = "As Shot",
			orientation = "AB",
		},
		uuid = "12AD618C-A61B-4780-AD5B-98B24325CD6A",
	},
	version = 0,
}
