Develop Presets/User Presets/PresetPond/ONE.lrtemplate
s = {
	id = "0E992231-7D4B-4DA2-A539-0ABAC0F72898",
	internalName = "Daniela_1",
	title = "Daniela_1",
	type = "Develop",
	value = {
		settings = {
			AutoBrightness = false,
			AutoContrast = false,
			AutoExposure = false,
			AutoShadows = false,
			BlueHue = 0,
			BlueSaturation = 0,
			Brightness = 54,
			CameraProfile = "Embedded",
			ChromaticAberrationB = 0,
			ChromaticAberrationR = 0,
			Clarity = 0,
			ColorNoiseReduction = 100,
			ColorNoiseReductionDetail = 50,
			Contrast = 43,
			ConvertToGrayscale = false,
			CropConstrainToWarp = 0,
			Defringe = 0,
			EnableCalibration = true,
			EnableColorAdjustments = true,
			EnableDetail = true,
			EnableEffects = true,
			EnableGradientBasedCorrections = true,
			EnableLensCorrections = true,
			EnableSplitToning = true,
			Exposure = 1.35,
			FillLight = 0,
			GrainAmount = 0,
			GrainFrequency = 50,
			GrainSize = 25,
			GreenHue = 0,
			GreenSaturation = 0,
			HighlightRecovery = 100,
			HueAdjustmentAqua = 0,
			HueAdjustmentBlue = 0,
			HueAdjustmentGreen = 0,
			HueAdjustmentMagenta = 0,
			HueAdjustmentOrange = -38,
			HueAdjustmentPurple = 33,
			HueAdjustmentRed = -69,
			HueAdjustmentYellow = 0,
			IncrementalTemperature = 5,
			IncrementalTint = -35,
			LensManualDistortionAmount = 0,
			LensProfileEnable = 0,
			LensProfileSetup = "LensDefaults",
			LuminanceAdjustmentAqua = -77,
			LuminanceAdjustmentBlue = -100,
			LuminanceAdjustmentGreen = 38,
			LuminanceAdjustmentMagenta = 0,
			LuminanceAdjustmentOrange = 26,
			LuminanceAdjustmentPurple = -62,
			LuminanceAdjustmentRed = 67,
			LuminanceAdjustmentYellow = 19,
			LuminanceNoiseReductionContrast = 0,
			LuminanceNoiseReductionDetail = 50,
			LuminanceSmoothing = 100,
			ParametricDarks = 24,
			ParametricHighlightSplit = 75,
			ParametricHighlights = -5,
			ParametricLights = 1,
			ParametricMidtoneSplit = 50,
			ParametricShadowSplit = 25,
			ParametricShadows = 34,
			PerspectiveHorizontal = 0,
			PerspectiveRotate = 0,
			PerspectiveScale = 100,
			PerspectiveVertical = 0,
			PostCropVignetteAmount = 0,
			PostCropVignetteFeather = 50,
			PostCropVignetteHighlightContrast = 0,
			PostCropVignetteMidpoint = 50,
			PostCropVignetteRoundness = 0,
			PostCropVignetteStyle = 1,
			ProcessVersion = "5.7",
			RedHue = 0,
			RedSaturation = 0,
			Saturation = -36,
			SaturationAdjustmentAqua = -100,
			SaturationAdjustmentBlue = -100,
			SaturationAdjustmentGreen = -100,
			SaturationAdjustmentMagenta = -25,
			SaturationAdjustmentOrange = -83,
			SaturationAdjustmentPurple = -8,
			SaturationAdjustmentRed = -75,
			SaturationAdjustmentYellow = -100,
			ShadowTint = 0,
			Shadows = 19,
			SharpenDetail = 25,
			SharpenEdgeMasking = 0,
			SharpenRadius = 1,
			Sharpness = 100,
			SplitToningBalance = -100,
			SplitToningHighlightHue = 40,
			SplitToningHighlightSaturation = 0,
			SplitToningShadowHue = 40,
			SplitToningShadowSaturation = 20,
			ToneCurve = {
				0,
				0,
				32,
				22,
				64,
				56,
				128,
				128,
				192,
				196,
				255,
				255,
			},
			ToneCurveName = "Medium Contrast",
			Vibrance = 100,
			VignetteAmount = 75,
			VignetteMidpoint = 37,
			WhiteBalance = "Custom",
			orientation = "AB",
		},
		uuid = "8DA46A79-1D96-47C3-811C-FC3A967AFFF1",
	},
	version = 0,
}
