Develop Presets/User Presets/Presets/6 - Seim Simple Polorizer (Xi) (PW3).lrtemplate
s = {
	id = "2F34B822-07FE-420B-83C6-3580398673D9",
	internalName = "1:18 Polorizer (PW2.3)",
	title = "6 - Seim Simple Polorizer (Xi) (PW3)",
	type = "Develop",
	value = {
		settings = {
			ConvertToGrayscale = false,
			EnableColorAdjustments = true,
			HueAdjustmentAqua = 0,
			HueAdjustmentBlue = 0,
			HueAdjustmentGreen = 0,
			HueAdjustmentMagenta = 0,
			HueAdjustmentOrange = 0,
			HueAdjustmentPurple = 0,
			HueAdjustmentRed = 0,
			HueAdjustmentYellow = 0,
			LuminanceAdjustmentAqua = -30,
			LuminanceAdjustmentBlue = -35,
			LuminanceAdjustmentGreen = 0,
			LuminanceAdjustmentMagenta = 0,
			LuminanceAdjustmentOrange = 0,
			LuminanceAdjustmentPurple = 0,
			LuminanceAdjustmentRed = 0,
			LuminanceAdjustmentYellow = 5,
			SaturationAdjustmentAqua = 6,
			SaturationAdjustmentBlue = 40,
			SaturationAdjustmentGreen = 0,
			SaturationAdjustmentMagenta = 0,
			SaturationAdjustmentOrange = 0,
			SaturationAdjustmentPurple = 0,
			SaturationAdjustmentRed = 0,
			SaturationAdjustmentYellow = 0,
		},
		uuid = "FFCA7892-0BD6-4EB3-B9D3-38CFA6D2AB2B",
	},
	version = 0,
}
