Develop Presets/User Presets/Presets/All About Blue (Warm).lrtemplate
s = {
	internalName = "All About Blue (Warm)",
	title = "All About Blue (Warm)",
	type = "Develop",
	value = {
		settings = {
			ConvertToGrayscale = false,
			EnableColorAdjustments = true,
			EnableSplitToning = true,
			HueAdjustmentAqua = 50,
			HueAdjustmentBlue = 2,
			HueAdjustmentGreen = 0,
			HueAdjustmentMagenta = 0,
			HueAdjustmentOrange = 0,
			HueAdjustmentPurple = 0,
			HueAdjustmentRed = 0,
			HueAdjustmentYellow = 0,
			LuminanceAdjustmentAqua = 33,
			LuminanceAdjustmentBlue = 33,
			LuminanceAdjustmentGreen = 0,
			LuminanceAdjustmentMagenta = 0,
			LuminanceAdjustmentOrange = 0,
			LuminanceAdjustmentPurple = 0,
			LuminanceAdjustmentRed = 0,
			LuminanceAdjustmentYellow = 0,
			Saturation = 0,
			SaturationAdjustmentAqua = 100,
			SaturationAdjustmentBlue = 40,
			SaturationAdjustmentGreen = -100,
			SaturationAdjustmentMagenta = -100,
			SaturationAdjustmentOrange = -56,
			SaturationAdjustmentPurple = -100,
			SaturationAdjustmentRed = -79,
			SaturationAdjustmentYellow = -100,
			SplitToningBalance = 0,
			SplitToningHighlightHue = 47,
			SplitToningHighlightSaturation = 22,
			SplitToningShadowHue = 0,
			SplitToningShadowSaturation = 0,
			Vibrance = 23,
		},
		uuid = "7E5DF002-EA92-415F-8A86-C9384FFAD070",
	},
	version = 0,
}
