Develop Presets/User Presets/Presets/Black & White Portraits - All Purpose.lrtemplate
s = {
	id = "C544C59C-B0CF-4BED-9EB9-3DC7D70F3E43",
	internalName = "Black & White Portraits - All Purpose",
	title = "Black & White Portraits - All Purpose",
	type = "Develop",
	value = {
		settings = {
			Blacks2012 = 0,
			Clarity2012 = 23,
			Contrast2012 = 24,
			ConvertToGrayscale = false,
			EnableColorAdjustments = true,
			EnableEffects = true,
			Exposure2012 = 0,
			Highlights2012 = 0,
			HueAdjustmentAqua = 0,
			HueAdjustmentBlue = 0,
			HueAdjustmentGreen = 0,
			HueAdjustmentMagenta = 0,
			HueAdjustmentOrange = 0,
			HueAdjustmentPurple = 0,
			HueAdjustmentRed = 0,
			HueAdjustmentYellow = 0,
			IncrementalTemperature = 61,
			IncrementalTint = 27,
			LuminanceAdjustmentAqua = 0,
			LuminanceAdjustmentBlue = 0,
			LuminanceAdjustmentGreen = 0,
			LuminanceAdjustmentMagenta = 0,
			LuminanceAdjustmentOrange = 0,
			LuminanceAdjustmentPurple = 0,
			LuminanceAdjustmentRed = 0,
			LuminanceAdjustmentYellow = 0,
			PostCropVignetteAmount = -11,
			PostCropVignetteFeather = 100,
			PostCropVignetteHighlightContrast = 0,
			PostCropVignetteMidpoint = 15,
			PostCropVignetteRoundness = 41,
			PostCropVignetteStyle = 1,
			ProcessVersion = "6.7",
			Saturation = -100,
			SaturationAdjustmentAqua = 0,
			SaturationAdjustmentBlue = 0,
			SaturationAdjustmentGreen = 0,
			SaturationAdjustmentMagenta = 0,
			SaturationAdjustmentOrange = 0,
			SaturationAdjustmentPurple = 0,
			SaturationAdjustmentRed = 0,
			SaturationAdjustmentYellow = 0,
			Shadows2012 = 0,
			Vibrance = 0,
			WhiteBalance = "Custom",
			Whites2012 = 0,
		},
		uuid = "75C3F200-EDE7-4CE5-B46B-1C8C3624D01D",
	},
	version = 0,
}
