Develop Presets/User Presets/Presets/Black and Beautiful.lrtemplate
s = {
	internalName = "Black and Beautiful",
	title = "Black and Beautiful",
	type = "Develop",
	value = {
		settings = {
			AutoShadows = false,
			ConvertToGrayscale = true,
			EnableGrayscaleMix = true,
			EnableSplitToning = true,
			GrayMixerAqua = -18,
			GrayMixerBlue = 9,
			GrayMixerGreen = -27,
			GrayMixerMagenta = 4,
			GrayMixerOrange = -19,
			GrayMixerPurple = 15,
			GrayMixerRed = -10,
			GrayMixerYellow = -23,
			ParametricDarks = -11,
			ParametricHighlightSplit = 75,
			ParametricHighlights = 6,
			ParametricLights = 18,
			ParametricMidtoneSplit = 50,
			ParametricShadowSplit = 25,
			ParametricShadows = 0,
			Shadows = 26,
			SplitToningBalance = -35,
			SplitToningHighlightHue = 17,
			SplitToningHighlightSaturation = 20,
			SplitToningShadowHue = 0,
			SplitToningShadowSaturation = 0,
			ToneCurve = {
				0,
				0,
				255,
				255,
			},
			ToneCurveName = "Linear",
		},
		uuid = "CD540131-D5AE-4ADA-87AF-A2F7BC7C4DE7",
	},
	version = 0,
}
