Develop Presets/User Presets/Presets/Eric Kim B-W Solid.lrtemplate
s = {
	id = "C7A608A2-09F0-43A1-936B-63A46C8C9429",
	internalName = "Eric B/W Solid",
	title = "Eric B/W Solid",
	type = "Develop",
	value = {
		settings = {
			AutoBrightness = false,
			AutoContrast = false,
			AutoExposure = false,
			AutoShadows = false,
			BlueHue = 0,
			BlueSaturation = 0,
			Brightness = 50,
			CameraProfile = "ACR 4.4",
			ChromaticAberrationB = 0,
			ChromaticAberrationR = 0,
			Clarity = 80,
			ColorNoiseReductionDetail = 50,
			Contrast = 25,
			ConvertToGrayscale = true,
			Defringe = 0,
			EnableCalibration = true,
			EnableDetail = true,
			EnableEffects = true,
			EnableGrayscaleMix = true,
			EnableLensCorrections = true,
			EnableSplitToning = true,
			Exposure = 0,
			FillLight = 40,
			GrainAmount = 0,
			GrainFrequency = 50,
			GrainSize = 25,
			GrayMixerAqua = -14,
			GrayMixerBlue = 17,
			GrayMixerGreen = -28,
			GrayMixerMagenta = 3,
			GrayMixerOrange = -22,
			GrayMixerPurple = 19,
			GrayMixerRed = -12,
			GrayMixerYellow = -26,
			GreenHue = 0,
			GreenSaturation = 0,
			HighlightRecovery = 0,
			LuminanceNoiseReductionContrast = 0,
			LuminanceNoiseReductionDetail = 50,
			LuminanceSmoothing = 0,
			ParametricDarks = 0,
			ParametricHighlightSplit = 75,
			ParametricHighlights = 49,
			ParametricLights = 0,
			ParametricMidtoneSplit = 50,
			ParametricShadowSplit = 25,
			ParametricShadows = -34,
			PostCropVignetteAmount = 0,
			PostCropVignetteFeather = 50,
			PostCropVignetteHighlightContrast = 0,
			PostCropVignetteMidpoint = 50,
			PostCropVignetteRoundness = 0,
			PostCropVignetteStyle = 1,
			ProcessVersion = "5.7",
			RedHue = 0,
			RedSaturation = 0,
			ShadowTint = 0,
			Shadows = 5,
			SharpenDetail = 25,
			SharpenEdgeMasking = 0,
			SharpenRadius = 1.5,
			Sharpness = 55,
			SplitToningBalance = 0,
			SplitToningHighlightHue = 49,
			SplitToningHighlightSaturation = 0,
			SplitToningShadowHue = 0,
			SplitToningShadowSaturation = 0,
			Temperature = 3667,
			Tint = -11,
			ToneCurve = {
				0,
				0,
				32,
				16,
				64,
				50,
				128,
				128,
				192,
				202,
				255,
				255,
			},
			ToneCurveName = "Strong Contrast",
			VignetteAmount = -100,
			VignetteMidpoint = 51,
			WhiteBalance = "Custom",
		},
		uuid = "1D2C3F58-23F9-40E2-9D6A-02E62B5BE77C",
	},
	version = 0,
}
