Develop Presets/User Presets/Presets/IR Flavor.lrtemplate
s = {
	internalName = "IR Flavor",
	title = "IR Flavor",
	type = "Develop",
	value = {
		settings = {
			Clarity = 40,
			ConvertToGrayscale = false,
			EnableColorAdjustments = true,
			EnableSplitToning = true,
			HueAdjustmentAqua = 2,
			HueAdjustmentBlue = -33,
			HueAdjustmentGreen = 0,
			HueAdjustmentMagenta = 0,
			HueAdjustmentOrange = 0,
			HueAdjustmentPurple = 0,
			HueAdjustmentRed = 0,
			HueAdjustmentYellow = 0,
			LuminanceAdjustmentAqua = 0,
			LuminanceAdjustmentBlue = 52,
			LuminanceAdjustmentGreen = 0,
			LuminanceAdjustmentMagenta = 0,
			LuminanceAdjustmentOrange = 0,
			LuminanceAdjustmentPurple = 0,
			LuminanceAdjustmentRed = 0,
			LuminanceAdjustmentYellow = 0,
			Saturation = 0,
			SaturationAdjustmentAqua = 0,
			SaturationAdjustmentBlue = -27,
			SaturationAdjustmentGreen = 0,
			SaturationAdjustmentMagenta = 0,
			SaturationAdjustmentOrange = -100,
			SaturationAdjustmentPurple = 0,
			SaturationAdjustmentRed = -100,
			SaturationAdjustmentYellow = -100,
			SplitToningBalance = 0,
			SplitToningHighlightHue = 210,
			SplitToningHighlightSaturation = 11,
			SplitToningShadowHue = 0,
			SplitToningShadowSaturation = 0,
		},
		uuid = "35DFB753-6275-48CD-84D6-542F8AAC948C",
	},
	version = 0,
}
