Develop Presets/User Presets/Presets/Make It Better.lrtemplate
s = {
	internalName = "Make It Better",
	title = "Make It Better",
	type = "Develop",
	value = {
		settings = {
			AutoBrightness = false,
			AutoContrast = false,
			AutoExposure = false,
			AutoShadows = false,
			Clarity = 29,
			Contrast = 36,
			HighlightRecovery = 34,
			ParametricDarks = -16,
			ParametricHighlightSplit = 75,
			ParametricHighlights = 0,
			ParametricLights = 14,
			ParametricMidtoneSplit = 50,
			ParametricShadowSplit = 25,
			ParametricShadows = 0,
			Shadows = 11,
			ToneCurve = {
				0,
				0,
				32,
				22,
				64,
				56,
				128,
				128,
				192,
				196,
				255,
				255,
			},
			ToneCurveName = "Medium Contrast",
		},
		uuid = "5299C4A1-9C70-4112-B651-3E8A7FD0DE9E",
	},
	version = 0,
}
