Develop Presets/User Presets/Presets/Make It Better - Auto Tone.lrtemplate
s = {
	internalName = "Make It Better - Auto Tone",
	title = "Make It Better - Auto Tone",
	type = "Develop",
	value = {
		settings = {
			AutoBrightness = false,
			AutoContrast = false,
			AutoExposure = false,
			AutoShadows = false,
			AutoTone = true,
			Clarity = 29,
			ParametricDarks = -16,
			ParametricHighlightSplit = 75,
			ParametricHighlights = 0,
			ParametricLights = 14,
			ParametricMidtoneSplit = 50,
			ParametricShadowSplit = 25,
			ParametricShadows = 0,
			ToneCurve = {
				0,
				0,
				32,
				22,
				64,
				56,
				128,
				128,
				192,
				196,
				255,
				255,
			},
			ToneCurveName = "Medium Contrast",
		},
		uuid = "533AAF75-9B31-4978-A4BB-6AEA26309386",
	},
	version = 0,
}
