Develop Presets/User Presets/Presets/MLR_-_gritty_&_grungy.lrtemplate
s = {
	internalName = "MLR - gritty & grungy",
	title = "MLR - gritty & grungy",
	type = "Develop",
	value = {
		settings = {
			AutoBrightness = false,
			AutoContrast = false,
			AutoExposure = false,
			AutoShadows = false,
			BlueHue = -5,
			BlueSaturation = 15,
			Brightness = 50,
			CameraProfile = "ACR 2.4",
			ChromaticAberrationB = 0,
			ChromaticAberrationR = 0,
			Clarity = 100,
			ColorNoiseReduction = 50,
			Contrast = 75,
			ConvertToGrayscale = false,
			Defringe = 0,
			EnableCalibration = true,
			EnableColorAdjustments = true,
			EnableDetail = true,
			EnableGrayscaleMix = true,
			EnableLensCorrections = true,
			EnableSplitToning = true,
			Exposure = 0.47,
			FillLight = 100,
			GreenHue = 0,
			GreenSaturation = 0,
			HighlightRecovery = 100,
			HueAdjustmentAqua = 0,
			HueAdjustmentBlue = 0,
			HueAdjustmentGreen = 0,
			HueAdjustmentMagenta = 0,
			HueAdjustmentOrange = 0,
			HueAdjustmentPurple = 0,
			HueAdjustmentRed = 0,
			HueAdjustmentYellow = 0,
			LuminanceAdjustmentAqua = 0,
			LuminanceAdjustmentBlue = 0,
			LuminanceAdjustmentGreen = 0,
			LuminanceAdjustmentMagenta = 0,
			LuminanceAdjustmentOrange = 21,
			LuminanceAdjustmentPurple = 0,
			LuminanceAdjustmentRed = 31,
			LuminanceAdjustmentYellow = 0,
			LuminanceSmoothing = 40,
			ParametricDarks = -35,
			ParametricHighlightSplit = 75,
			ParametricHighlights = 0,
			ParametricLights = 0,
			ParametricMidtoneSplit = 50,
			ParametricShadowSplit = 25,
			ParametricShadows = -25,
			RedHue = 0,
			RedSaturation = 0,
			Saturation = -50,
			SaturationAdjustmentAqua = 0,
			SaturationAdjustmentBlue = 22,
			SaturationAdjustmentGreen = 0,
			SaturationAdjustmentMagenta = 0,
			SaturationAdjustmentOrange = 0,
			SaturationAdjustmentPurple = 0,
			SaturationAdjustmentRed = -13,
			SaturationAdjustmentYellow = 0,
			ShadowTint = 5,
			Shadows = 5,
			SharpenDetail = 50,
			SharpenEdgeMasking = 45,
			SharpenRadius = 1.5,
			Sharpness = 62,
			SplitToningBalance = 0,
			SplitToningHighlightHue = 0,
			SplitToningHighlightSaturation = 0,
			SplitToningShadowHue = 0,
			SplitToningShadowSaturation = 0,
			ToneCurve = {
				0,
				0,
				32,
				16,
				64,
				50,
				128,
				128,
				192,
				202,
				255,
				255,
			},
			ToneCurveName = "Linear",
			Vibrance = 50,
			VignetteAmount = -56,
			VignetteMidpoint = 18,
		},
		uuid = "B9045785-BDC1-47E2-A839-2D98E332844F",
	},
	version = 0,
}
