Develop Presets/User Presets/Presets/Nostalgialicious_.lrtemplate
s = {
	internalName = "Nostalgialicious ",
	title = "Nostalgialicious ",
	type = "Develop",
	value = {
		settings = {
			AutoBrightness = false,
			AutoContrast = false,
			AutoExposure = false,
			AutoShadows = false,
			EnableSplitToning = true,
			EnableVignettes = true,
			HighlightRecovery = 45,
			ParametricDarks = 0,
			ParametricHighlightSplit = 75,
			ParametricHighlights = 0,
			ParametricLights = 27,
			ParametricMidtoneSplit = 50,
			ParametricShadowSplit = 25,
			ParametricShadows = -27,
			PostCropVignetteAmount = -38,
			PostCropVignetteFeather = 50,
			PostCropVignetteMidpoint = 50,
			PostCropVignetteRoundness = 0,
			Shadows = 27,
			SplitToningBalance = 0,
			SplitToningHighlightHue = 68,
			SplitToningHighlightSaturation = 20,
			SplitToningShadowHue = 56,
			SplitToningShadowSaturation = 22,
			Temperature = 6479,
			Tint = 2,
			ToneCurve = {
				0,
				0,
				32,
				22,
				64,
				56,
				128,
				128,
				192,
				196,
				255,
				255,
			},
			ToneCurveName = "Medium Contrast",
			WhiteBalance = "Custom",
		},
		uuid = "CEE718C6-EE3C-4F5C-BE50-62B7134965DC",
	},
	version = 0,
}
