Develop Presets/User Presets/Presets/Phaded Photo.lrtemplate
s = {
	id = "1953C18E-B745-4FEF-9D3D-4395F78F5903",
	internalName = "Phaded Photo",
	title = "Phaded Photo",
	type = "Develop",
	value = {
		settings = {
			AutoBrightness = false,
			AutoContrast = false,
			AutoExposure = false,
			AutoShadows = false,
			BlueHue = -7,
			BlueSaturation = -100,
			Brightness = 50,
			CameraProfile = "ACR 3.4",
			ChromaticAberrationB = 0,
			ChromaticAberrationR = 0,
			Clarity = 0,
			ColorNoiseReduction = 25,
			Contrast = 25,
			ConvertToGrayscale = false,
			Defringe = 2,
			EnableCalibration = true,
			EnableColorAdjustments = true,
			EnableDetail = true,
			EnableGrayscaleMix = true,
			EnableSplitToning = true,
			EnableVignettes = true,
			Exposure = 0,
			FillLight = 42,
			GreenHue = 33,
			GreenSaturation = 100,
			HighlightRecovery = 74,
			HueAdjustmentAqua = 100,
			HueAdjustmentBlue = 0,
			HueAdjustmentGreen = 0,
			HueAdjustmentMagenta = 0,
			HueAdjustmentOrange = 0,
			HueAdjustmentPurple = 0,
			HueAdjustmentRed = 19,
			HueAdjustmentYellow = 0,
			LuminanceAdjustmentAqua = 2,
			LuminanceAdjustmentBlue = -57,
			LuminanceAdjustmentGreen = 10,
			LuminanceAdjustmentMagenta = 0,
			LuminanceAdjustmentOrange = 17,
			LuminanceAdjustmentPurple = 0,
			LuminanceAdjustmentRed = 0,
			LuminanceAdjustmentYellow = 50,
			LuminanceSmoothing = 15,
			ParametricDarks = 0,
			ParametricHighlightSplit = 75,
			ParametricHighlights = 0,
			ParametricLights = 39,
			ParametricMidtoneSplit = 50,
			ParametricShadowSplit = 25,
			ParametricShadows = 0,
			PostCropVignetteAmount = 0,
			PostCropVignetteMidpoint = 50,
			RedHue = 38,
			RedSaturation = 100,
			Saturation = -12,
			SaturationAdjustmentAqua = -100,
			SaturationAdjustmentBlue = -45,
			SaturationAdjustmentGreen = -62,
			SaturationAdjustmentMagenta = -100,
			SaturationAdjustmentOrange = -29,
			SaturationAdjustmentPurple = -100,
			SaturationAdjustmentRed = -100,
			SaturationAdjustmentYellow = -76,
			ShadowTint = 0,
			Shadows = 20,
			SharpenDetail = 25,
			SharpenEdgeMasking = 0,
			SharpenRadius = 1,
			Sharpness = 15,
			SplitToningBalance = 0,
			SplitToningHighlightHue = 58,
			SplitToningHighlightSaturation = 38,
			SplitToningShadowHue = 0,
			SplitToningShadowSaturation = 6,
			Temperature = 4857,
			Tint = 18,
			ToneCurve = {
				0,
				0,
				32,
				22,
				64,
				56,
				128,
				128,
				192,
				196,
				255,
				255,
			},
			ToneCurveName = "Medium Contrast",
			Vibrance = -29,
			VignetteAmount = 0,
			VignetteMidpoint = 50,
			WhiteBalance = "Custom",
		},
		uuid = "9EA4B474-657C-4FB0-8DC8-D624AEA5654A",
	},
	version = 0,
}
