Develop Presets/User Presets/Presets/PSKiss-B&W-Dramatic.lrtemplate
s = {
	id = "62AC7C71-E14E-48B6-8AFF-A4EEF894B4C0",
	internalName = "PSKiss-B&W-Dramatic",
	title = "PSKiss-B&W-Dramatic",
	type = "Develop",
	value = {
		settings = {
			AutoBrightness = false,
			AutoContrast = false,
			AutoExposure = false,
			AutoShadows = false,
			BlueHue = 0,
			BlueSaturation = 0,
			Brightness = 50,
			CameraProfile = "ACR 4.4",
			ChromaticAberrationB = 0,
			ChromaticAberrationR = 0,
			Clarity = 51,
			ColorNoiseReduction = 22,
			ColorNoiseReductionDetail = 50,
			Contrast = 25,
			ConvertToGrayscale = false,
			Defringe = 0,
			EnableCalibration = true,
			EnableColorAdjustments = true,
			EnableDetail = true,
			EnableEffects = true,
			EnableLensCorrections = true,
			EnableSplitToning = true,
			Exposure = -0.15,
			FillLight = 0,
			GrainAmount = 0,
			GrainFrequency = 50,
			GrainSize = 25,
			GreenHue = 0,
			GreenSaturation = 0,
			HighlightRecovery = 0,
			HueAdjustmentAqua = 0,
			HueAdjustmentBlue = 0,
			HueAdjustmentGreen = 0,
			HueAdjustmentMagenta = 0,
			HueAdjustmentOrange = 0,
			HueAdjustmentPurple = 0,
			HueAdjustmentRed = 0,
			HueAdjustmentYellow = 0,
			LuminanceAdjustmentAqua = -74,
			LuminanceAdjustmentBlue = -85,
			LuminanceAdjustmentGreen = 0,
			LuminanceAdjustmentMagenta = 0,
			LuminanceAdjustmentOrange = 52,
			LuminanceAdjustmentPurple = -53,
			LuminanceAdjustmentRed = 28,
			LuminanceAdjustmentYellow = 23,
			LuminanceNoiseReductionContrast = 0,
			LuminanceNoiseReductionDetail = 50,
			LuminanceSmoothing = 14,
			ParametricDarks = 0,
			ParametricHighlightSplit = 75,
			ParametricHighlights = 0,
			ParametricLights = 0,
			ParametricMidtoneSplit = 50,
			ParametricShadowSplit = 25,
			ParametricShadows = 0,
			PostCropVignetteAmount = 0,
			PostCropVignetteFeather = 50,
			PostCropVignetteHighlightContrast = 0,
			PostCropVignetteMidpoint = 50,
			PostCropVignetteRoundness = 0,
			PostCropVignetteStyle = 1,
			ProcessVersion = "5.7",
			RedHue = 0,
			RedSaturation = 0,
			Saturation = 0,
			SaturationAdjustmentAqua = -100,
			SaturationAdjustmentBlue = -100,
			SaturationAdjustmentGreen = -100,
			SaturationAdjustmentMagenta = -100,
			SaturationAdjustmentOrange = -100,
			SaturationAdjustmentPurple = -100,
			SaturationAdjustmentRed = -100,
			SaturationAdjustmentYellow = -100,
			ShadowTint = 0,
			Shadows = 5,
			SharpenDetail = 25,
			SharpenEdgeMasking = 0,
			SharpenRadius = 1,
			Sharpness = 25,
			SplitToningBalance = 0,
			SplitToningHighlightHue = 0,
			SplitToningHighlightSaturation = 0,
			SplitToningShadowHue = 0,
			SplitToningShadowSaturation = 0,
			Temperature = 7000,
			Tint = -7,
			ToneCurve = {
				0,
				0,
				35,
				12,
				61,
				37,
				127,
				134,
				190,
				219,
				229,
				250,
				255,
				255,
			},
			ToneCurveName = "Custom",
			Vibrance = 51,
			VignetteAmount = 0,
			VignetteMidpoint = 50,
			WhiteBalance = "Custom",
		},
		uuid = "08E249FC-C40D-4B33-ACC3-680D39ADD41F",
	},
	version = 0,
}
