Develop Presets/User Presets/Presets/PSKiss-Bleach 02.lrtemplate
s = {
	id = "C8EB8330-A739-409D-85A4-FA1248D42CB2",
	internalName = "PSKiss-Bleach 02",
	title = "PSKiss-Bleach 02",
	type = "Develop",
	value = {
		settings = {
			AutoBrightness = false,
			AutoContrast = false,
			AutoExposure = false,
			AutoShadows = false,
			BlueHue = 0,
			BlueSaturation = 0,
			Brightness = 130,
			CameraProfile = "Camera Faithful",
			ChromaticAberrationB = 0,
			ChromaticAberrationR = 0,
			Clarity = -100,
			ColorNoiseReduction = 30,
			ColorNoiseReductionDetail = 50,
			Contrast = 45,
			ConvertToGrayscale = false,
			Defringe = 0,
			EnableCalibration = true,
			EnableColorAdjustments = true,
			EnableDetail = true,
			EnableEffects = true,
			EnableLensCorrections = true,
			EnableSplitToning = true,
			Exposure = 0.2,
			FillLight = 40,
			GrainAmount = 40,
			GrainFrequency = 60,
			GrainSize = 25,
			GreenHue = 0,
			GreenSaturation = 0,
			HighlightRecovery = 40,
			HueAdjustmentAqua = 0,
			HueAdjustmentBlue = 0,
			HueAdjustmentGreen = 0,
			HueAdjustmentMagenta = 0,
			HueAdjustmentOrange = 0,
			HueAdjustmentPurple = 0,
			HueAdjustmentRed = 0,
			HueAdjustmentYellow = 0,
			LuminanceAdjustmentAqua = 0,
			LuminanceAdjustmentBlue = -20,
			LuminanceAdjustmentGreen = 0,
			LuminanceAdjustmentMagenta = 0,
			LuminanceAdjustmentOrange = 0,
			LuminanceAdjustmentPurple = 0,
			LuminanceAdjustmentRed = 0,
			LuminanceAdjustmentYellow = 0,
			LuminanceNoiseReductionContrast = 0,
			LuminanceNoiseReductionDetail = 50,
			LuminanceSmoothing = 30,
			ParametricDarks = 0,
			ParametricHighlightSplit = 75,
			ParametricHighlights = 0,
			ParametricLights = 0,
			ParametricMidtoneSplit = 50,
			ParametricShadowSplit = 25,
			ParametricShadows = 0,
			PostCropVignetteAmount = -10,
			PostCropVignetteFeather = 81,
			PostCropVignetteHighlightContrast = 0,
			PostCropVignetteMidpoint = 79,
			PostCropVignetteRoundness = 0,
			PostCropVignetteStyle = 3,
			ProcessVersion = "5.7",
			RedHue = 0,
			RedSaturation = 0,
			Saturation = -75,
			SaturationAdjustmentAqua = 0,
			SaturationAdjustmentBlue = 0,
			SaturationAdjustmentGreen = 0,
			SaturationAdjustmentMagenta = 0,
			SaturationAdjustmentOrange = 0,
			SaturationAdjustmentPurple = 0,
			SaturationAdjustmentRed = 0,
			SaturationAdjustmentYellow = 0,
			ShadowTint = 0,
			Shadows = 28,
			SharpenDetail = 14,
			SharpenEdgeMasking = 45,
			SharpenRadius = 3,
			Sharpness = 40,
			SplitToningBalance = -35,
			SplitToningHighlightHue = 0,
			SplitToningHighlightSaturation = 0,
			SplitToningShadowHue = 41,
			SplitToningShadowSaturation = 19,
			Temperature = 5500,
			Tint = 5,
			ToneCurve = {
				0,
				23,
				63,
				71,
				191,
				185,
				255,
				230,
			},
			ToneCurveName = "Custom",
			Vibrance = 90,
			VignetteAmount = -40,
			VignetteMidpoint = 50,
			WhiteBalance = "Custom",
		},
		uuid = "900D2CEB-C618-443E-A3CB-41B3464E9386",
	},
	version = 0,
}
