Develop Presets/User Presets/Presets/Punch BW.lrtemplate
s = {
	internalName = "Punch BW",
	title = "Punch BW",
	type = "Develop",
	value = {
		settings = {
			AutoBrightness = false,
			AutoContrast = false,
			AutoExposure = false,
			AutoShadows = false,
			ChromaticAberrationB = 0,
			ChromaticAberrationR = 0,
			Clarity = 100,
			ConvertToGrayscale = true,
			Defringe = 0,
			EnableColorAdjustments = true,
			EnableDetail = true,
			EnableGrayscaleMix = true,
			EnableVignettes = true,
			FillLight = 81,
			GrayMixerAqua = -18,
			GrayMixerBlue = 11,
			GrayMixerGreen = -27,
			GrayMixerMagenta = 4,
			GrayMixerOrange = -19,
			GrayMixerPurple = 16,
			GrayMixerRed = -10,
			GrayMixerYellow = -23,
			HighlightRecovery = 50,
			LuminanceSmoothing = 0,
			ParametricDarks = 0,
			ParametricHighlightSplit = 75,
			ParametricHighlights = 0,
			ParametricLights = 0,
			ParametricMidtoneSplit = 50,
			ParametricShadowSplit = 25,
			ParametricShadows = 0,
			PostCropVignetteAmount = 0,
			PostCropVignetteFeather = 50,
			PostCropVignetteMidpoint = 50,
			PostCropVignetteRoundness = 0,
			Shadows = 64,
			SharpenDetail = 25,
			SharpenEdgeMasking = 0,
			SharpenRadius = 1,
			Sharpness = 25,
			Temperature = 2714,
			Tint = 4,
			ToneCurve = {
				0,
				0,
				32,
				16,
				64,
				50,
				128,
				128,
				192,
				202,
				255,
				255,
			},
			ToneCurveName = "Strong Contrast",
			VignetteAmount = 0,
			VignetteMidpoint = 67,
			WhiteBalance = "Custom",
		},
		uuid = "4414D17F-6AB1-4756-8DA6-BFA00AEAF6D9",
	},
	version = 0,
}
