Develop Presets/User Presets/Presets/redrex-vintage BW(LR2).lrtemplate
s = {
	id = "F90C38F4-9781-4E1C-8BD4-59F37DAD790A",
	internalName = "redrex-vintage BW(LR2)",
	title = "redrex-vintage BW(LR2)",
	type = "Develop",
	value = {
		settings = {
			AutoBrightness = false,
			AutoContrast = false,
			AutoExposure = false,
			AutoShadows = false,
			BlueHue = 17,
			BlueSaturation = 31,
			Brightness = 12,
			CameraProfile = "Embedded",
			ChromaticAberrationB = 0,
			ChromaticAberrationR = 0,
			Clarity = 100,
			ColorNoiseReduction = 25,
			Contrast = 69,
			ConvertToGrayscale = false,
			Defringe = 2,
			EnableCalibration = true,
			EnableColorAdjustments = true,
			EnableDetail = true,
			EnableGrayscaleMix = true,
			EnableSplitToning = true,
			EnableVignettes = true,
			Exposure = -0.05,
			FillLight = 17,
			GreenHue = -69,
			GreenSaturation = 90,
			HighlightRecovery = 100,
			HueAdjustmentAqua = 0,
			HueAdjustmentBlue = 0,
			HueAdjustmentGreen = -1,
			HueAdjustmentMagenta = 17,
			HueAdjustmentOrange = 15,
			HueAdjustmentPurple = 0,
			HueAdjustmentRed = 33,
			HueAdjustmentYellow = -2,
			IncrementalTemperature = 29,
			IncrementalTint = -41,
			LuminanceAdjustmentAqua = 0,
			LuminanceAdjustmentBlue = 0,
			LuminanceAdjustmentGreen = 0,
			LuminanceAdjustmentMagenta = 0,
			LuminanceAdjustmentOrange = 0,
			LuminanceAdjustmentPurple = 0,
			LuminanceAdjustmentRed = 0,
			LuminanceAdjustmentYellow = 38,
			LuminanceSmoothing = 0,
			ParametricDarks = 0,
			ParametricHighlightSplit = 75,
			ParametricHighlights = -50,
			ParametricLights = -2,
			ParametricMidtoneSplit = 50,
			ParametricShadowSplit = 25,
			ParametricShadows = 0,
			PostCropVignetteAmount = -20,
			PostCropVignetteFeather = 48,
			PostCropVignetteMidpoint = 77,
			PostCropVignetteRoundness = 6,
			RedHue = -29,
			RedSaturation = 10,
			Saturation = -100,
			SaturationAdjustmentAqua = 0,
			SaturationAdjustmentBlue = 0,
			SaturationAdjustmentGreen = 0,
			SaturationAdjustmentMagenta = 0,
			SaturationAdjustmentOrange = 0,
			SaturationAdjustmentPurple = 0,
			SaturationAdjustmentRed = 0,
			SaturationAdjustmentYellow = -10,
			ShadowTint = 63,
			Shadows = 26,
			SharpenDetail = 25,
			SharpenEdgeMasking = 0,
			SharpenRadius = 1,
			Sharpness = 25,
			SplitToningBalance = 14,
			SplitToningHighlightHue = 34,
			SplitToningHighlightSaturation = 6,
			SplitToningShadowHue = 30,
			SplitToningShadowSaturation = 15,
			ToneCurve = {
				0,
				0,
				255,
				255,
			},
			ToneCurveName = "Linear",
			Vibrance = 93,
			VignetteAmount = -100,
			VignetteMidpoint = 50,
			WhiteBalance = "Custom",
		},
		uuid = "93ACD3D9-CF6E-48B8-A467-93675CA54B05",
	},
	version = 0,
}
