Develop Presets/User Presets/Presets/Simply Black & White.lrtemplate
s = {
	internalName = "Simply Black & White",
	title = "Simply Black & White",
	type = "Develop",
	value = {
		settings = {
			AutoBrightness = false,
			AutoContrast = false,
			AutoExposure = false,
			AutoShadows = false,
			Brightness = 25,
			Clarity = 29,
			Contrast = 100,
			ConvertToGrayscale = true,
			EnableGrayscaleMix = true,
			FillLight = 13,
			GrayMixerAqua = -16,
			GrayMixerBlue = 16,
			GrayMixerGreen = -29,
			GrayMixerMagenta = 4,
			GrayMixerOrange = -22,
			GrayMixerPurple = 20,
			GrayMixerRed = -13,
			GrayMixerYellow = -27,
			HighlightRecovery = 24,
			ParametricDarks = 23,
			ParametricHighlightSplit = 75,
			ParametricHighlights = -38,
			ParametricLights = 58,
			ParametricMidtoneSplit = 50,
			ParametricShadowSplit = 25,
			ParametricShadows = 27,
			Shadows = 11,
			ToneCurve = {
				0,
				0,
				32,
				22,
				64,
				56,
				128,
				128,
				192,
				196,
				255,
				255,
			},
			ToneCurveName = "Medium Contrast",
		},
		uuid = "4EC87ADF-DDF9-4775-B4FF-2D8A54962414",
	},
	version = 0,
}
