Develop Presets/User Presets/Presets/Sunset Shimmer.lrtemplate
s = {
	internalName = "Sunset Shimmer",
	title = "Sunset Shimmer",
	type = "Develop",
	value = {
		settings = {
			ConvertToGrayscale = false,
			EnableColorAdjustments = true,
			EnableSplitToning = true,
			HueAdjustmentAqua = 0,
			HueAdjustmentBlue = 0,
			HueAdjustmentGreen = 0,
			HueAdjustmentMagenta = 0,
			HueAdjustmentOrange = 56,
			HueAdjustmentPurple = 0,
			HueAdjustmentRed = 52,
			HueAdjustmentYellow = 54,
			LuminanceAdjustmentAqua = 0,
			LuminanceAdjustmentBlue = 0,
			LuminanceAdjustmentGreen = 0,
			LuminanceAdjustmentMagenta = 0,
			LuminanceAdjustmentOrange = 0,
			LuminanceAdjustmentPurple = 0,
			LuminanceAdjustmentRed = 0,
			LuminanceAdjustmentYellow = 0,
			Saturation = 0,
			SaturationAdjustmentAqua = 0,
			SaturationAdjustmentBlue = 0,
			SaturationAdjustmentGreen = 0,
			SaturationAdjustmentMagenta = 0,
			SaturationAdjustmentOrange = 0,
			SaturationAdjustmentPurple = 0,
			SaturationAdjustmentRed = 0,
			SaturationAdjustmentYellow = 0,
			SplitToningBalance = 0,
			SplitToningHighlightHue = 75,
			SplitToningHighlightSaturation = 14,
			SplitToningShadowHue = 52,
			SplitToningShadowSaturation = 14,
			Vibrance = 31,
		},
		uuid = "21708291-5F7C-423B-93BF-7F7F6D27CDB9",
	},
	version = 0,
}
