Develop Presets/User Presets/Presets/Tonality_Y.lrtemplate
s = {
	id = "3C3E72DA-A1CA-4C0A-A512-203E95EA306C",
	internalName = "Tonality_Y",
	title = "Tonality_Y",
	type = "Develop",
	value = {
		settings = {
			AutoBrightness = false,
			AutoContrast = false,
			AutoExposure = false,
			AutoShadows = false,
			BlueHue = 18,
			BlueSaturation = -12,
			Brightness = 52,
			CameraProfile = "Adobe Standard",
			ChromaticAberrationB = 0,
			ChromaticAberrationR = 0,
			Clarity = 0,
			ColorNoiseReduction = 25,
			ColorNoiseReductionDetail = 50,
			Contrast = 25,
			ConvertToGrayscale = false,
			Defringe = 0,
			EnableCalibration = true,
			EnableColorAdjustments = true,
			EnableDetail = true,
			EnableEffects = true,
			EnableGradientBasedCorrections = true,
			EnableLensCorrections = true,
			EnableSplitToning = true,
			Exposure = 0,
			FillLight = 0,
			GradientBasedCorrections = {
				{
					CorrectionActive = true,
					CorrectionAmount = 1,
					CorrectionID = "199B34BB-873D-45A3-9F07-1B6E55B089F7",
					CorrectionMasks = {
						{
							FullX = 0.479142,
							FullY = 0.143914,
							MaskID = "67158631-C0B9-4AB0-9FC5-EF7DF849702F",
							MaskValue = 1,
							What = "Mask/Gradient",
							ZeroX = 0.474647,
							ZeroY = 1.14404,
						},
					},
					CorrectionReferenceX = 0.476894,
					CorrectionReferenceY = 0.643977,
					LocalBrightness = 0,
					LocalClarity = 0,
					LocalContrast = 0,
					LocalExposure = 0.000368,
					LocalSaturation = 0.013051,
					LocalSharpness = 0,
					LocalToningHue = 59.8555,
					LocalToningSaturation = 0.347461,
					What = "Correction",
				},
			},
			GrainAmount = 0,
			GrainFrequency = 50,
			GrainSize = 25,
			GreenHue = 11,
			GreenSaturation = -19,
			HighlightRecovery = 0,
			HueAdjustmentAqua = 0,
			HueAdjustmentBlue = 0,
			HueAdjustmentGreen = 0,
			HueAdjustmentMagenta = 0,
			HueAdjustmentOrange = 0,
			HueAdjustmentPurple = 0,
			HueAdjustmentRed = 0,
			HueAdjustmentYellow = 0,
			LuminanceAdjustmentAqua = 9,
			LuminanceAdjustmentBlue = 7,
			LuminanceAdjustmentGreen = 10,
			LuminanceAdjustmentMagenta = 3,
			LuminanceAdjustmentOrange = 14,
			LuminanceAdjustmentPurple = 7,
			LuminanceAdjustmentRed = 15,
			LuminanceAdjustmentYellow = 10,
			LuminanceNoiseReductionContrast = 0,
			LuminanceNoiseReductionDetail = 50,
			LuminanceSmoothing = 0,
			ParametricDarks = 0,
			ParametricHighlightSplit = 75,
			ParametricHighlights = 0,
			ParametricLights = 15,
			ParametricMidtoneSplit = 50,
			ParametricShadowSplit = 25,
			ParametricShadows = 0,
			PostCropVignetteAmount = 0,
			PostCropVignetteFeather = 50,
			PostCropVignetteHighlightContrast = 0,
			PostCropVignetteMidpoint = 50,
			PostCropVignetteRoundness = 0,
			PostCropVignetteStyle = 1,
			ProcessVersion = "5.7",
			RedHue = -4,
			RedSaturation = -25,
			Saturation = 0,
			SaturationAdjustmentAqua = 0,
			SaturationAdjustmentBlue = 0,
			SaturationAdjustmentGreen = 0,
			SaturationAdjustmentMagenta = 0,
			SaturationAdjustmentOrange = 0,
			SaturationAdjustmentPurple = 0,
			SaturationAdjustmentRed = 0,
			SaturationAdjustmentYellow = 0,
			ShadowTint = 0,
			Shadows = 5,
			SharpenDetail = 25,
			SharpenEdgeMasking = 0,
			SharpenRadius = 1,
			Sharpness = 25,
			SplitToningBalance = 0,
			SplitToningHighlightHue = 64,
			SplitToningHighlightSaturation = 25,
			SplitToningShadowHue = 216,
			SplitToningShadowSaturation = 41,
			Temperature = 5500,
			Tint = 10,
			ToneCurve = {
				0,
				0,
				32,
				22,
				64,
				56,
				128,
				128,
				192,
				196,
				255,
				255,
			},
			ToneCurveName = "Medium Contrast",
			Vibrance = 0,
			VignetteAmount = 0,
			VignetteMidpoint = 50,
			WhiteBalance = "Daylight",
			orientation = "AB",
		},
		uuid = "73751F20-26DF-4A0E-AFCB-A4A5447C2423",
	},
	version = 0,
}
