Develop Presets/User Presets/onOne PerfectPresets Vol 3/B&W - 1.lrtemplate
s = {
	id = "5E6A9E86-032C-45BA-8CA5-455386601058",
	internalName = "B&W - 1",
	title = "B&W - 1",
	type = "Develop",
	value = {
		settings = {
			AutoBrightness = false,
			AutoContrast = false,
			Brightness = 50,
			Contrast = 25,
			ConvertToGrayscale = true,
			EnableGrayscaleMix = true,
			GrayMixerAqua = -17,
			GrayMixerBlue = 13,
			GrayMixerGreen = -28,
			GrayMixerMagenta = 4,
			GrayMixerOrange = -20,
			GrayMixerPurple = 18,
			GrayMixerRed = -11,
			GrayMixerYellow = -24,
			ParametricDarks = 9,
			ParametricHighlightSplit = 75,
			ParametricHighlights = 0,
			ParametricLights = 43,
			ParametricMidtoneSplit = 50,
			ParametricShadowSplit = 25,
			ParametricShadows = -43,
			ToneCurve = {
				0,
				0,
				32,
				22,
				64,
				56,
				128,
				128,
				192,
				196,
				255,
				255,
			},
			ToneCurveName = "Medium Contrast",
		},
		uuid = "2A7F36F3-329A-4DE3-9834-A9D4E1BB6919",
	},
	version = 0,
}
