Develop Presets/User Presets/onOne PerfectPresets Vol 3/B&W - 2a.lrtemplate
s = {
	id = "B3D861BD-9218-4254-96DD-6D1703B50A62",
	internalName = "B&W - 2a",
	title = "B&W - 2a",
	type = "Develop",
	value = {
		settings = {
			AutoBrightness = false,
			AutoContrast = false,
			AutoShadows = false,
			Brightness = 50,
			Contrast = 25,
			ConvertToGrayscale = true,
			EnableGrayscaleMix = true,
			EnableSplitToning = true,
			GrayMixerAqua = -17,
			GrayMixerBlue = 25,
			GrayMixerGreen = -28,
			GrayMixerMagenta = 4,
			GrayMixerOrange = -42,
			GrayMixerPurple = 60,
			GrayMixerRed = -11,
			GrayMixerYellow = -24,
			ParametricDarks = 9,
			ParametricHighlightSplit = 75,
			ParametricHighlights = 0,
			ParametricLights = 43,
			ParametricMidtoneSplit = 50,
			ParametricShadowSplit = 25,
			ParametricShadows = -43,
			Shadows = 6,
			SplitToningBalance = 0,
			SplitToningHighlightHue = 0,
			SplitToningHighlightSaturation = 0,
			SplitToningShadowHue = 37,
			SplitToningShadowSaturation = 22,
			ToneCurve = {
				0,
				0,
				32,
				16,
				64,
				50,
				128,
				128,
				192,
				202,
				255,
				255,
			},
			ToneCurveName = "Strong Contrast",
		},
		uuid = "27D4D139-0131-4A03-8453-248DBF4135D4",
	},
	version = 0,
}
