Develop Presets/User Presets/onOne PerfectPresets Vol 3/Brilliant Blue Skies - Strong.lrtemplate
s = {
	id = "65EB2C2B-C7EB-4179-824B-F42317D0A0AC",
	internalName = "Brilliant Blue Skies - Strong",
	title = "Brilliant Blue Skies - Strong",
	type = "Develop",
	value = {
		settings = {
			ConvertToGrayscale = false,
			EnableColorAdjustments = true,
			HueAdjustmentAqua = 0,
			HueAdjustmentBlue = 2,
			HueAdjustmentGreen = 0,
			HueAdjustmentMagenta = 0,
			HueAdjustmentOrange = 0,
			HueAdjustmentPurple = 1,
			HueAdjustmentRed = 0,
			HueAdjustmentYellow = 0,
			LuminanceAdjustmentAqua = -6,
			LuminanceAdjustmentBlue = -44,
			LuminanceAdjustmentGreen = 0,
			LuminanceAdjustmentMagenta = 0,
			LuminanceAdjustmentOrange = 0,
			LuminanceAdjustmentPurple = -3,
			LuminanceAdjustmentRed = 0,
			LuminanceAdjustmentYellow = 0,
			Saturation = 0,
			SaturationAdjustmentAqua = 0,
			SaturationAdjustmentBlue = 10,
			SaturationAdjustmentGreen = 0,
			SaturationAdjustmentMagenta = 0,
			SaturationAdjustmentOrange = 0,
			SaturationAdjustmentPurple = 1,
			SaturationAdjustmentRed = 0,
			SaturationAdjustmentYellow = 0,
			Vibrance = 0,
		},
		uuid = "24907CC2-7D32-4BC5-AE44-8C138F2F6924",
	},
	version = 0,
}
